docs/.vuepress/public/svg/jetbrains.svg

<svg width="100%" height="100%" viewBox="0 0 310 155" xmlns="http://www.w3.org/2000/svg" xml:space="preserve"
    style="fill-rule:evenodd;clip-rule:evenodd;stroke-linejoin:round;stroke-miterlimit:2">
    <path
        d="M310 23.25v108.5c0 12.832-10.418 23.25-23.25 23.25H23.25C10.418 155 0 144.582 0 131.75V23.25C0 10.418 10.418 0 23.25 0h263.5C299.582 0 310 10.418 310 23.25Z"
        style="fill:#f2f2f2" />
    <path
        d="M86.484 40.586c0 .846-.179 1.593-.537 2.25a3.717 3.717 0 0 1-1.514 1.524c-.657.358-1.394.538-2.24.538H78v6.104h5.079c1.912 0 3.625-.428 5.148-1.285a9.355 9.355 0 0 0 3.585-3.545c.866-1.503 1.305-3.196 1.305-5.088V21.018h-6.633v19.568Zm17.856-1.823h13.891v-5.606H104.34v-6.363h15.355v-5.776H97.877v29.974h22.246v-5.776H104.34v-6.453Zm17.865-11.8h8.882v24.02h6.633v-24.02h8.842v-5.945h-24.367v5.955l.01-.01Zm47.022 9.002a7.83 7.83 0 0 0-1.673-.647 7.45 7.45 0 0 0 1.275-.488c1.096-.568 1.962-1.364 2.579-2.39.618-1.026.936-2.2.936-3.535 0-1.524-.418-2.888-1.244-4.093-.827-1.195-1.992-2.131-3.486-2.808-1.494-.667-3.206-1.006-5.118-1.006h-13.315v29.974h13.574c2.011 0 3.804-.348 5.387-1.055 1.573-.707 2.798-1.683 3.675-2.948.866-1.255 1.304-2.689 1.304-4.302 0-1.484-.338-2.808-1.026-3.983a7.058 7.058 0 0 0-2.858-2.729l-.01.01Zm-13.603-9.918h5.886c.816 0 1.533.15 2.161.438.6.266 1.109.702 1.464 1.255.348.537.527 1.175.527 1.902 0 .727-.179 1.414-.527 1.981-.349.568-.837.996-1.464 1.305-.628.309-1.345.458-2.161.458h-5.886v-7.35.011Zm10.138 18.134c-.378.567-.916 1.006-1.603 1.314-.697.309-1.484.458-2.39.458h-6.145v-7.687h6.145c.886 0 1.673.169 2.37.497.687.329 1.235.787 1.613 1.385.378.597.578 1.274.578 2.041 0 .767-.19 1.424-.568 1.992Zm29.596-5.308c1.663-.797 2.947-1.922 3.864-3.366.916-1.444 1.374-3.117 1.374-5.029s-.448-3.525-1.344-4.959c-.897-1.434-2.171-2.54-3.814-3.326-1.644-.787-3.546-1.175-5.717-1.175h-13.124v29.974h6.642V40.078h4.322l6.084 10.914h7.578l-6.851-11.72c.339-.12.677-.25.996-.399h-.01Zm-2.151-6.124a3.597 3.597 0 0 1-1.583 1.444c-.688.338-1.494.507-2.42.507h-5.975v-8.295h5.975c.926 0 1.732.17 2.42.498a3.636 3.636 0 0 1 1.583 1.434c.368.618.558 1.355.558 2.19 0 .837-.19 1.574-.558 2.202v.02Zm20.594-11.731-10.706 29.974h6.742l2.121-6.612h11.114l2.27 6.612h6.612L220.99 21.018h-7.189Zm-.339 18.343 3.445-10.576.409-1.922.408 1.922 3.685 10.576h-7.947Zm20.693 11.631h6.851V21.018h-6.851v29.974Zm31.02-9.7-12.896-20.274h-6.463v29.974h6.055V30.717l12.826 20.275h6.533V21.018h-6.055v20.275-.001Zm31.528-3.355c-.647-1.245-1.564-2.29-2.729-3.137-1.165-.846-2.509-1.404-4.023-1.693l-5.098-1.045c-.797-.19-1.434-.518-1.902-.996-.469-.478-.708-1.076-.708-1.783 0-.647.17-1.205.518-1.683.339-.478.827-.846 1.444-1.115.618-.269 1.335-.398 2.151-.398.817 0 1.554.139 2.181.418.627.279 1.115.667 1.464 1.175s.528 1.075.528 1.723h6.642c-.04-1.743-.528-3.287-1.444-4.621-.916-1.344-2.201-2.39-3.834-3.147-1.633-.757-3.505-1.135-5.597-1.135-2.091 0-3.943.388-5.566 1.175-1.623.787-2.898 1.872-3.804 3.266-.906 1.395-1.364 2.978-1.364 4.76 0 1.444.288 2.749.876 3.904a7.912 7.912 0 0 0 2.479 2.898c1.076.767 2.311 1.304 3.725 1.603l5.397 1.115c.886.21 1.584.598 2.101 1.156.518.557.767 1.244.767 2.08a3.033 3.033 0 0 1-.567 1.803c-.379.528-.907.936-1.584 1.225-.677.289-1.474.428-2.39.428-.916 0-1.782-.159-2.529-.478-.747-.318-1.325-.776-1.733-1.374-.418-.587-.617-1.275-.617-2.041h-6.642c.029 1.872.527 3.515 1.513 4.949.976 1.424 2.32 2.54 4.033 3.336 1.713.797 3.675 1.195 5.886 1.195 2.21 0 4.202-.408 5.915-1.225 1.723-.816 3.057-1.942 4.023-3.376.966-1.434 1.444-3.057 1.444-4.87 0-1.483-.329-2.847-.976-4.102l.02.01Z"
        style="fill-rule:nonzero" transform="translate(6 45.5)" />
    <path
        d="M20.34 3.66 3.66 20.34A12.508 12.508 0 0 0 0 29.18V59c0 2.76 2.24 5 5 5h29.82c3.32 0 6.49-1.32 8.84-3.66l16.68-16.68c2.34-2.34 3.66-5.52 3.66-8.84V5c0-2.76-2.24-5-5-5H29.18c-3.32 0-6.49 1.32-8.84 3.66Z"
        style="fill:url(#a);fill-rule:nonzero" transform="translate(6 45.5)" />
    <path d="M14 61.5h40v40H14z" />
    <path style="fill:#fff" d="M13 47h17v4H13z" transform="translate(6 45.5)" />
    <defs>
        <linearGradient id="a" x1="0" y1="0" x2="1" y2="0" gradientUnits="userSpaceOnUse"
            gradientTransform="rotate(-44.6 76.892 30.324) scale(86.75)">
            <stop offset="0" style="stop-color:#ff9419;stop-opacity:1" />
            <stop offset=".43" style="stop-color:#ff021d;stop-opacity:1" />
            <stop offset=".99" style="stop-color:#e600ff;stop-opacity:1" />
            <stop offset="1" style="stop-color:#e600ff;stop-opacity:1" />
        </linearGradient>
    </defs>
</svg>

<svg width="100%" height="100%" viewBox="0 0 360 180" version="1.1" xmlns="http://www.w3.org/2000/svg"
    xmlns:xlink="http://www.w3.org/1999/xlink" xml:space="preserve" xmlns:serif="http://www.serif.com/"
    style="fill-rule:evenodd;clip-rule:evenodd;stroke-linejoin:round;stroke-miterlimit:2;">
    <g transform="matrix(1.20805,0,0,1.20805,0,51.3423)">
        <path
            d="M86.484,40.586C86.484,41.432 86.305,42.179 85.947,42.836C85.588,43.494 85.09,44.001 84.433,44.36C83.776,44.718 83.039,44.898 82.192,44.898L78,44.898L78,51.002L83.079,51.002C84.991,51.002 86.703,50.574 88.227,49.718C89.751,48.861 90.946,47.676 91.812,46.172C92.678,44.669 93.117,42.976 93.117,41.084L93.117,21.018L86.484,21.018L86.484,40.586ZM104.34,38.763L118.231,38.763L118.231,33.157L104.34,33.157L104.34,26.794L119.695,26.794L119.695,21.018L97.877,21.018L97.877,50.992L120.123,50.992L120.123,45.216L104.34,45.216L104.34,38.763ZM122.205,26.963L131.087,26.963L131.087,50.982L137.72,50.982L137.72,26.963L146.562,26.963L146.562,21.018L122.195,21.018L122.195,26.973L122.205,26.963ZM169.227,35.965C168.71,35.686 168.142,35.477 167.554,35.318C168.003,35.188 168.431,35.029 168.829,34.83C169.925,34.262 170.791,33.466 171.408,32.44C172.026,31.414 172.344,30.239 172.344,28.905C172.344,27.381 171.926,26.017 171.1,24.812C170.273,23.617 169.108,22.681 167.614,22.004C166.12,21.337 164.408,20.998 162.496,20.998L149.181,20.998L149.181,50.972L162.755,50.972C164.766,50.972 166.559,50.624 168.142,49.917C169.715,49.21 170.94,48.234 171.817,46.969C172.683,45.714 173.121,44.28 173.121,42.667C173.121,41.183 172.783,39.859 172.095,38.684C171.408,37.509 170.462,36.603 169.237,35.955L169.227,35.965ZM155.624,26.047L161.51,26.047C162.326,26.047 163.043,26.196 163.671,26.485C164.298,26.774 164.786,27.192 165.135,27.74C165.483,28.277 165.662,28.915 165.662,29.642C165.662,30.369 165.483,31.056 165.135,31.623C164.786,32.191 164.298,32.619 163.671,32.928C163.043,33.237 162.326,33.386 161.51,33.386L155.624,33.386L155.624,26.037L155.624,26.047ZM165.762,44.181C165.384,44.748 164.846,45.187 164.159,45.495C163.462,45.804 162.675,45.953 161.769,45.953L155.624,45.953L155.624,38.266L161.769,38.266C162.655,38.266 163.442,38.435 164.139,38.763C164.826,39.092 165.374,39.55 165.752,40.148C166.13,40.745 166.33,41.422 166.33,42.189C166.33,42.956 166.14,43.613 165.762,44.181ZM195.358,38.873C197.021,38.076 198.305,36.951 199.222,35.507C200.138,34.063 200.596,32.39 200.596,30.478C200.596,28.566 200.148,26.953 199.252,25.519C198.355,24.085 197.081,22.98 195.438,22.193C193.794,21.406 191.892,21.018 189.721,21.018L176.597,21.018L176.597,50.992L183.239,50.992L183.239,40.078L187.561,40.078L193.645,50.992L201.223,50.992L194.372,39.271C194.711,39.152 195.049,39.022 195.368,38.873L195.358,38.873ZM193.207,32.749C192.838,33.376 192.311,33.864 191.624,34.193C190.936,34.531 190.13,34.701 189.204,34.701L183.229,34.701L183.229,26.405L189.204,26.405C190.13,26.405 190.936,26.575 191.624,26.903C192.311,27.232 192.838,27.72 193.207,28.337C193.575,28.955 193.765,29.692 193.765,30.528C193.765,31.364 193.575,32.101 193.207,32.729L193.207,32.749ZM213.801,21.018L203.095,50.992L209.837,50.992L211.958,44.38L223.072,44.38L225.342,50.992L231.954,50.992L220.99,21.018L213.801,21.018ZM213.462,39.361L216.907,28.785L217.316,26.863L217.724,28.785L221.409,39.361L213.462,39.361ZM234.155,50.992L241.006,50.992L241.006,21.018L234.155,21.018L234.155,50.992ZM265.175,41.293L252.279,21.018L245.816,21.018L245.816,50.992L251.871,50.992L251.871,30.717L264.697,50.992L271.23,50.992L271.23,21.018L265.175,21.018L265.175,41.293ZM296.703,37.937C296.056,36.692 295.139,35.647 293.974,34.8C292.809,33.954 291.465,33.396 289.951,33.107L284.853,32.062C284.056,31.872 283.419,31.544 282.951,31.066C282.482,30.588 282.243,29.99 282.243,29.283C282.243,28.636 282.413,28.078 282.761,27.6C283.1,27.122 283.588,26.754 284.205,26.485C284.823,26.216 285.54,26.087 286.356,26.087C287.173,26.087 287.91,26.226 288.537,26.505C289.164,26.784 289.652,27.172 290.001,27.68C290.35,28.188 290.529,28.755 290.529,29.403L297.171,29.403C297.131,27.66 296.643,26.116 295.727,24.782C294.811,23.438 293.526,22.392 291.893,21.635C290.26,20.878 288.388,20.5 286.296,20.5C284.205,20.5 282.353,20.888 280.73,21.675C279.107,22.462 277.832,23.547 276.926,24.941C276.02,26.336 275.562,27.919 275.562,29.701C275.562,31.145 275.85,32.45 276.438,33.605C277.025,34.77 277.852,35.736 278.917,36.503C279.993,37.27 281.228,37.807 282.642,38.106L288.039,39.222C288.925,39.431 289.623,39.819 290.14,40.377C290.658,40.934 290.907,41.621 290.907,42.458C290.907,43.125 290.718,43.733 290.34,44.26C289.961,44.788 289.433,45.196 288.756,45.485C288.079,45.774 287.282,45.913 286.366,45.913C285.45,45.913 284.584,45.754 283.837,45.435C283.09,45.117 282.512,44.659 282.104,44.061C281.686,43.474 281.487,42.786 281.487,42.02L274.845,42.02C274.874,43.892 275.372,45.535 276.358,46.969C277.334,48.393 278.678,49.508 280.391,50.305C282.104,51.102 284.066,51.5 286.277,51.5C288.487,51.5 290.479,51.092 292.192,50.275C293.915,49.459 295.249,48.333 296.215,46.899C297.181,45.465 297.659,43.842 297.659,42.03C297.659,40.546 297.33,39.182 296.683,37.927L296.703,37.937Z"
            style="fill-rule:nonzero;" />
    </g>
    <g transform="matrix(1.20805,0,0,1.20805,0,51.3423)">
        <path
            d="M20.34,3.66L3.66,20.34C1.32,22.68 0,25.86 0,29.18L0,59C0,61.76 2.24,64 5,64L34.82,64C38.14,64 41.31,62.68 43.66,60.34L60.34,43.66C62.68,41.32 64,38.14 64,34.82L64,5C64,2.24 61.76,0 59,0L29.18,0C25.86,0 22.69,1.32 20.34,3.66Z"
            style="fill:url(#_Linear1);fill-rule:nonzero;" />
    </g>
    <g transform="matrix(1.20805,0,0,1.20805,0,51.3423)">
        <rect x="8" y="16" width="40" height="40" style="fill-rule:nonzero;" />
    </g>
    <g transform="matrix(1.20805,0,0,1.20805,0,51.3423)">
        <rect x="13" y="47" width="17" height="4" style="fill:white;fill-rule:nonzero;" />
    </g>
    <defs>
        <linearGradient id="_Linear1" x1="0" y1="0" x2="1" y2="0" gradientUnits="userSpaceOnUse"
            gradientTransform="matrix(61.77,-60.91,60.91,61.77,0.850001,62.72)">
            <stop offset="0" style="stop-color:rgb(255,148,25);stop-opacity:1" />
            <stop offset="0.43" style="stop-color:rgb(255,2,29);stop-opacity:1" />
            <stop offset="0.99" style="stop-color:rgb(230,0,255);stop-opacity:1" />
            <stop offset="1" style="stop-color:rgb(230,0,255);stop-opacity:1" />
        </linearGradient>
    </defs>
</svg>
